src/topics/icons/stormpath.svg

<svg height="256" preserveAspectRatio="xMidYMid" viewBox="0 0 256 256" width="256" xmlns="http://www.w3.org/2000/svg"><path d="m127.706 98.743c16.734-.074 29.384 12.246 29.48 28.712.098 16.649-12.812 29.789-29.279 29.802-16.155.013-29.065-13.001-29.094-29.33-.029-16.757 12.2-29.109 28.893-29.184zm-75.971 28.094c.557-29.349 13.739-52.121 39.409-66.97 21.551-12.466 45.349-18.64 69.507-23.355 12.987-2.535 40.148-6.049 48.915-7.159-22.147-18.333-50.569-29.353-81.566-29.353-70.692 0-128 57.308-128 128 0 35.331 14.315 67.319 37.461 90.48 7.248-7.397 26.603-27.132 36.281-36.83-14.391-14.827-22.404-33.869-22.007-54.813zm167.023-89.092c-6.467 6.476-26.215 26.25-36.259 36.305 1.367 1.664 4.144 4.153 5.74 6.157 14.262 17.915 19.625 38.369 16.017 60.802-4.757 29.579-22.639 48.884-49.472 60.763-28.99 12.835-59.741 18.618-90.861 22.978-3.982.558-13.28 1.692-17.167 2.163 22.101 18.174 50.397 29.087 81.244 29.087 70.692 0 128-57.308 128-128 0-35.218-14.226-67.112-37.242-90.255z" fill="#244ec6"/></svg>

<?xml version="1.0" encoding="UTF-8" standalone="no"?>
<svg width="256px" height="256px" viewBox="0 0 256 256" version="1.1" xmlns="http://www.w3.org/2000/svg" xmlns:xlink="http://www.w3.org/1999/xlink" preserveAspectRatio="xMidYMid">
    <g>
        <path d="M127.706,98.743 C144.44,98.669 157.09,110.989 157.186,127.455 C157.284,144.104 144.374,157.244 127.907,157.257 C111.752,157.27 98.842,144.256 98.813,127.927 C98.784,111.17 111.013,98.818 127.706,98.743 Z M51.735,126.837 C52.292,97.488 65.474,74.716 91.144,59.867 C112.695,47.401 136.493,41.227 160.651,36.512 C173.638,33.977 200.799,30.463 209.566,29.353 C187.419,11.02 158.997,0 128,0 C57.308,0 0,57.308 0,128 C0,163.331 14.315,195.319 37.461,218.48 C44.709,211.083 64.064,191.348 73.742,181.65 C59.351,166.823 51.338,147.781 51.735,126.837 Z M218.758,37.745 C212.291,44.221 192.543,63.995 182.499,74.05 C183.866,75.714 186.643,78.203 188.239,80.207 C202.501,98.122 207.864,118.576 204.256,141.009 C199.499,170.588 181.617,189.893 154.784,201.772 C125.794,214.607 95.043,220.39 63.923,224.75 C59.941,225.308 50.643,226.442 46.756,226.913 C68.857,245.087 97.153,256 128,256 C198.692,256 256,198.692 256,128 C256,92.782 241.774,60.888 218.758,37.745 Z" fill="#244EC6"></path>
    </g>
</svg>
